X:721
T:Haste To The Wedding
T:Tune 1 of The Three Tunes ( Set Dance )
M:6/8
L:1/8
K:D
A|"D"AFA Agf|"A"ede "D"fdB|AFA AGF|"A"GFG E2 A|
"D"AFA Agf|"A"ede "D"fdB|A2 g faf|ded d2:|
|:a|"D"afa afa|"G"bgb bgb|"D"afa agf|"A"gfg efg|
"D"a3 f3|"A"ede "D"fdB|A2 g faf|ded d2:|
